src/icons/solid/currency-dollar.svg

<svg width="20" height="20" viewBox="0 0 20 20" fill="none" xmlns="http://www.w3.org/2000/svg">
<path d="M8.43338 7.41784C8.58818 7.31464 8.77939 7.2224 9 7.15101L9.00001 8.84899C8.77939 8.7776 8.58818 8.68536 8.43338 8.58216C8.06927 8.33942 8 8.1139 8 8C8 7.8861 8.06927 7.66058 8.43338 7.41784Z" fill="#4A5568"/>
<path d="M11 12.849L11 11.151C11.2206 11.2224 11.4118 11.3146 11.5666 11.4178C11.9308 11.6606 12 11.8861 12 12C12 12.1139 11.9308 12.3394 11.5666 12.5822C11.4118 12.6854 11.2206 12.7776 11 12.849Z" fill="#4A5568"/>
<path fill-rule="evenodd" clip-rule="evenodd" d="M10 18C14.4183 18 18 14.4183 18 10C18 5.58172 14.4183 2 10 2C5.58172 2 2 5.58172 2 10C2 14.4183 5.58172 18 10 18ZM11 5C11 4.44772 10.5523 4 10 4C9.44772 4 9 4.44772 9 5V5.09199C8.3784 5.20873 7.80348 5.43407 7.32398 5.75374C6.6023 6.23485 6 7.00933 6 8C6 8.99067 6.6023 9.76515 7.32398 10.2463C7.80348 10.5659 8.37841 10.7913 9.00001 10.908L9.00002 12.8492C8.60902 12.7223 8.31917 12.5319 8.15667 12.3446C7.79471 11.9275 7.16313 11.8827 6.74599 12.2447C6.32885 12.6067 6.28411 13.2382 6.64607 13.6554C7.20855 14.3036 8.05956 14.7308 9 14.9076L9 15C8.99999 15.5523 9.44769 16 9.99998 16C10.5523 16 11 15.5523 11 15L11 14.908C11.6216 14.7913 12.1965 14.5659 12.676 14.2463C13.3977 13.7651 14 12.9907 14 12C14 11.0093 13.3977 10.2348 12.676 9.75373C12.1965 9.43407 11.6216 9.20873 11 9.09199L11 7.15075C11.391 7.27771 11.6808 7.4681 11.8434 7.65538C12.2053 8.07252 12.8369 8.11726 13.254 7.7553C13.6712 7.39335 13.7159 6.76176 13.354 6.34462C12.7915 5.69637 11.9405 5.26915 11 5.09236V5Z" fill="#4A5568"/>
</svg>

<svg xmlns="http://www.w3.org/2000/svg" viewBox="0 0 20 20" fill="currentColor">
  <path d="M8.433 7.418c.155-.103.346-.196.567-.267v1.698a2.305 2.305 0 01-.567-.267C8.07 8.34 8 8.114 8 8c0-.114.07-.34.433-.582zM11 12.849v-1.698c.22.071.412.164.567.267.364.243.433.468.433.582 0 .114-.07.34-.433.582a2.305 2.305 0 01-.567.267z"/>
  <path fill-rule="evenodd" d="M10 18a8 8 0 100-16 8 8 0 000 16zm1-13a1 1 0 10-2 0v.092a4.535 4.535 0 00-1.676.662C6.602 6.234 6 7.009 6 8c0 .99.602 1.765 1.324 2.246.48.32 1.054.545 1.676.662v1.941c-.391-.127-.68-.317-.843-.504a1 1 0 10-1.51 1.31c.562.649 1.413 1.076 2.353 1.253V15a1 1 0 102 0v-.092a4.535 4.535 0 001.676-.662C13.398 13.766 14 12.991 14 12c0-.99-.602-1.765-1.324-2.246A4.535 4.535 0 0011 9.092V7.151c.391.127.68.317.843.504a1 1 0 101.511-1.31c-.563-.649-1.413-1.076-2.354-1.253V5z" clip-rule="evenodd"/>
</svg>
